X: 40999
T: Trip To Falsterbo
R: three-two
M: 3/2
K: Eminor
BG/F/|F2 E2 GB|A/B/A/G/ F/A/D EF|GF/G/ AG/A/ BC|DE Bc GF|
F2 E2 GB|A/B/A/G/ F/A/D EF|GF/G/ AG/A/ BC|1 DE EB:|2 DE E2||
z2|GE ~E2 GB|F>E D2 EF|GB/c/ de ge|f/g/f/e/ d2 EF|
GE ~E2 GB|F/G/F/E/ DD EF|GF/G/ AG/A/ BC|DE E2:|

